icons/2_Variations/You Need A Budget alt.svg

<svg xmlns="http://www.w3.org/2000/svg" width="1024" height="1024" fill="none">
   <g clip-path="url(#a)">
      <path fill="#9ABEFF" d="M512 1024c282.77 0 512-229.23 512-512S794.77 0 512 0 0 229.23 0 512s229.23 512 512 512Z"/>
      <path fill="#fff" d="M280.4 533.7v60.4h-50.1v-60.4l-57.6-106.6H230l26.3 51.1c8.8-16.6 17.6-35 25.8-51.1H337l-56.6 106.6ZM437 594.2l-46.9-78v78h-47.4v-167h42.8l46.9 76.7v-76.7h47.1v167H437Zm161.7-29.7h-48.4l-9.7 29.6h-53.5l60.3-166.9H605l58.8 167h-55.7l-9.4-29.7Zm-24.1-76.4L562 526.3h25.3l-12.7-38.2Zm163.7 106.1h-67.1v-167h63.7c37.7 0 59.6 16.3 59.6 45.9 0 14.8-7.6 26.9-19.9 36 12.9 7.4 20.9 22.2 20.9 37.3-.1 30.7-21.5 47.8-57.2 47.8Zm-7.1-128.1h-12.1v27.1H732c6.3 0 11.9-5.2 11.9-14.3-.1-7.1-4.6-12.8-12.7-12.8Zm-1 61.4H719v27.9h10.5c10.5 0 16-5.2 16-13.6.1-8.8-4.3-14.3-15.3-14.3Zm66.7 41.7c0-15.3 12.1-27.6 27.2-27.6s27.2 12.3 27.2 27.6-12.1 27.6-27.2 27.6-27.2-12.3-27.2-27.6Z"/>
   </g>
   <defs>
      <clipPath id="a">
         <path fill="#fff" d="M0 0h1024v1024H0z"/>
      </clipPath>
   </defs>
</svg>

<svg width="1024" height="1024" viewBox="0 0 1024 1024" fill="none" xmlns="http://www.w3.org/2000/svg">
<g clip-path="url(#clip0_3_356)">
<path d="M512 1024C794.77 1024 1024 794.77 1024 512C1024 229.23 794.77 0 512 0C229.23 0 0 229.23 0 512C0 794.77 229.23 1024 512 1024Z" fill="#9ABEFF"/>
<path d="M280.4 533.7V594.1H230.3V533.7L172.7 427.1H230L256.3 478.2C265.1 461.6 273.9 443.2 282.1 427.1H337L280.4 533.7ZM437 594.2L390.1 516.2V594.2H342.7V427.2H385.5L432.4 503.9V427.2H479.5V594.2H437ZM598.7 564.5H550.3L540.6 594.1H487.1L547.4 427.2H605L663.8 594.2H608.1L598.7 564.5ZM574.6 488.1L562 526.3H587.3L574.6 488.1ZM738.3 594.2H671.2V427.2H734.9C772.6 427.2 794.5 443.5 794.5 473.1C794.5 487.9 786.9 500 774.6 509.1C787.5 516.5 795.5 531.3 795.5 546.4C795.4 577.1 774 594.2 738.3 594.2ZM731.2 466.1H719.1V493.2H732C738.3 493.2 743.9 488 743.9 478.9C743.8 471.8 739.3 466.1 731.2 466.1ZM730.2 527.5H719V555.4H729.5C740 555.4 745.5 550.2 745.5 541.8C745.6 533 741.2 527.5 730.2 527.5ZM796.9 569.2C796.9 553.9 809 541.6 824.1 541.6C839.2 541.6 851.3 553.9 851.3 569.2C851.3 584.5 839.2 596.8 824.1 596.8C809 596.8 796.9 584.5 796.9 569.2Z" fill="white"/>
</g>
<defs>
<clipPath id="clip0_3_356">
<rect width="1024" height="1024" fill="white"/>
</clipPath>
</defs>
</svg>
